X:1
T:Ach Bleib bei Uns
T:Geistliche Lieder (Leipzig, German
T:Ach Bleib bei Uns
T:Public Domain
C:Geistliche Lieder (Leipzig, German
Z:Public Domain
%%score ( 1 2 ) ( 3 4 )
L:1/8
M:4/4
K:F
V:1 treble 
V:2 treble 
V:3 bass 
V:4 bass 
V:1
 [FA]2 [FA]2 [Gc]2 | [FA]6 F2 | [_EG]2 [EA]2 [DB]4- | [DB]2 [CA]2 [CG]2 [CF]2 | %4
 [CE]2 [EA]2 [DG]2 [CF]2- | [CF]2 [CE]2 [CF]4 | z2 [FA]2 G2 [FA]2 | [DF]6 D2 | %8
 [CE]2 [A,F]2 [CG]4- | [CG]2 [CA]2 [CG]2 [CF]2 | [CE]2 [EA]2 [DG]2 [CF]2- | [CF]2 [CE]2 [CF]2 |] %12
V:2
 x6 | x6 F2 | x8 | x8 | x8 | x8 | x4 G2 x2 | x6 D2 | x8 | x8 | x8 | x6 |] %12
V:3
 [F,C]2 [F,C]2 [E,C]2 | [F,C]6 [D,B,]2 | [_E,B,]2 [C,F,]2 [B,,F,]4- | %3
 [B,,F,]2 F,2 [E,G,]2 [F,A,]2 | [C,G,]2 [A,,C]2 [B,,B,]2 [C,A,]2- | [C,A,]2 [C,G,]2 [F,,A,]4 | %6
 z2 [F,C]2 [E,C]2 [F,C]2 | [B,,B,]6 [B,,B,]2 | [C,G,]2 [D,F,]2 [C,E,]4- | %9
 [C,E,]2 F,2 [E,G,]2 [F,A,]2 | [C,G,]2 [A,,C]2 [B,,B,]2 [C,A,]2- | [C,A,]2 [C,G,]2 [F,,A,]2 |] %12
V:4
 x6 | x8 | x8 | x2 F,2 x4 | x8 | x8 | x8 | x8 | x8 | x2 F,2 x4 | x8 | x6 |] %12

